icons/shopping-basket-line.svg

<svg viewBox="0 0 24 24" fill="currentColor" xmlns="http://www.w3.org/2000/svg"><path d="M12.0049 2C15.3186 2 18.0049 4.68629 18.0049 8V9H22.0049V11H20.8379L20.0813 20.083C20.0381 20.6013 19.6048 21 19.0847 21H4.92502C4.40493 21 3.97166 20.6013 3.92847 20.083L3.17088 11H2.00488V9H6.00488V8C6.00488 4.68629 8.69117 2 12.0049 2ZM18.8309 11H5.17788L5.84488 19H18.1639L18.8309 11ZM13.0049 13V17H11.0049V13H13.0049ZM9.00488 13V17H7.00488V13H9.00488ZM17.0049 13V17H15.0049V13H17.0049ZM12.0049 4C9.86269 4 8.1138 5.68397 8.00978 7.80036L8.00488 8V9H16.0049V8C16.0049 5.8578 14.3209 4.10892 12.2045 4.0049L12.0049 4Z"/></svg>

<svg xmlns="http://www.w3.org/2000/svg" viewBox="0 0 24 24">
    <g>
        <path fill="none" d="M0 0h24v24H0z"/>
        <path fill-rule="nonzero" d="M12 2a6 6 0 0 1 6 6v1h4v2h-1.167l-.757 9.083a1 1 0 0 1-.996.917H4.92a1 1 0 0 1-.996-.917L3.166 11H2V9h4V8a6 6 0 0 1 6-6zm6.826 9H5.173l.667 8h12.319l.667-8zM13 13v4h-2v-4h2zm-4 0v4H7v-4h2zm8 0v4h-2v-4h2zm-5-9a4 4 0 0 0-3.995 3.8L8 8v1h8V8a4 4 0 0 0-3.8-3.995L12 4z"/>
    </g>
</svg>
